X: 289
T: On the Mountain Side
R: air, waltz
%S: s:2 b:8(4+4)
B: O'Neill's 1850 #289
O: O'Brien
Z: 1997 by John Chambers <jc@trillian.mit.edu>
N: Compacted by using labels and play order, and omitting slurs [JC]
P: Play AB BA
Q: "Slow"
M: 3/4
L: 1/8
K: D
"^A"[| A2 | d2 A2 GE | c2 B2 AG | E2 D2 D2 | "^fine"D4 |]
"^B"|: EF | G2 A2 Bc | d2 e2 ed | BA GA BG | "^d.C."A4 :|
